Sources/FrostedUI/Resources/Icons.xcassets/rocket20.imageset/rocket-20.svg

<svg width="20" height="20" viewBox="0 0 20 20" fill="none" xmlns="http://www.w3.org/2000/svg" data-fui-icon="true">
  <path
    d="M5.51892 15.7422C5.80766 15.4452 6.28249 15.4388 6.57947 15.7275C6.87617 16.0163 6.88276 16.4912 6.59412 16.7881L5.20544 18.2168C4.91673 18.5133 4.44176 18.5198 4.1449 18.2314C3.84802 17.9428 3.84173 17.4679 4.13025 17.1709L5.51892 15.7422ZM3.66736 13.8379C3.95609 13.5409 4.43091 13.5336 4.72791 13.8223C5.02464 14.111 5.03106 14.5859 4.74255 14.8828L2.4281 17.2637C2.1395 17.5603 1.66451 17.5675 1.36755 17.2793C1.07072 16.9907 1.06367 16.5158 1.35193 16.2188L3.66736 13.8379ZM17.2484 1.56152C18.1667 1.48926 18.9274 2.25058 18.8549 3.16895C18.6048 6.33052 17.028 8.77291 14.723 10.9502V14.2822C14.7229 14.8614 14.4069 15.3944 13.8988 15.6719H13.8978L13.5394 15.0137L13.1801 14.3555C13.2068 14.3408 13.2229 14.3125 13.223 14.2822V12.1807L10.14 14.6289V15.873C10.14 15.8942 10.1449 15.9067 10.1498 15.915C10.1558 15.9251 10.1665 15.9357 10.181 15.9443C10.1956 15.953 10.2102 15.9566 10.222 15.957C10.2317 15.9574 10.2447 15.9562 10.2631 15.9463L13.1801 14.3555L13.8978 15.6719L10.9818 17.2627C9.92687 17.838 8.64014 17.0748 8.64001 15.873V14.5781L5.83826 11.7764H4.54431C3.34259 11.7764 2.57866 10.4905 3.15369 9.43555L3.81189 9.79395L4.47107 10.1533C4.46102 10.1717 4.45907 10.1847 4.45935 10.1943C4.45976 10.2061 4.46353 10.2208 4.47205 10.2354C4.48074 10.25 4.49213 10.2606 4.50232 10.2666C4.51064 10.2715 4.52313 10.2764 4.54431 10.2764H5.78748L8.23572 7.19336H6.13513C6.10484 7.19336 6.07657 7.20985 6.06189 7.23633L4.47107 10.1533L3.15369 9.43457L4.74451 6.51855C5.02197 6.00995 5.55576 5.69336 6.13513 5.69336H9.46521C11.6427 3.38806 14.0865 1.81148 17.2484 1.56152ZM17.3588 3.05664C14.6082 3.27626 12.4366 4.6694 10.3568 6.93359L7.15271 10.9688L9.44666 13.2637L13.4769 10.0635C15.7445 7.98198 17.1392 5.80987 17.3588 3.05664ZM13.9672 5.00488C14.7436 5.00508 15.3734 5.6346 15.3734 6.41113C15.3732 7.18751 14.7435 7.81719 13.9672 7.81738C13.1906 7.81738 12.5611 7.18763 12.5609 6.41113C12.5609 5.63448 13.1905 5.00488 13.9672 5.00488Z"
    fill="currentColor"
  />
</svg>

<svg xmlns="http://www.w3.org/2000/svg" width="20" height="20" fill="none" data-fui-icon="true" viewBox="0 0 20 20"><path fill="currentColor" d="M5.519 15.742a.75.75 0 1 1 1.075 1.046l-1.389 1.429A.75.75 0 0 1 4.13 17.17zm-1.852-1.904a.75.75 0 1 1 1.076 1.045l-2.315 2.38a.75.75 0 0 1-1.076-1.044zM17.248 1.562a1.49 1.49 0 0 1 1.607 1.607c-.25 3.162-1.827 5.604-4.132 7.781v3.332c0 .58-.316 1.112-.824 1.39h-.001l-.359-.658-.359-.659a.08.08 0 0 0 .043-.073v-2.101l-3.083 2.448v1.244q.001.03.01.042.009.015.031.03.024.012.041.012c.01 0 .023 0 .041-.01l2.917-1.591.718 1.316-2.916 1.59a1.584 1.584 0 0 1-2.342-1.389v-1.295l-2.802-2.802H4.544a1.583 1.583 0 0 1-1.39-2.34l.658.358.66.36a.1.1 0 0 0-.013.04.1.1 0 0 0 .013.041.1.1 0 0 0 .03.032q.012.009.042.01h1.243l2.449-3.084h-2.1a.08.08 0 0 0-.074.043l-1.59 2.917-1.318-.718 1.59-2.916a1.59 1.59 0 0 1 1.391-.826h3.33c2.178-2.305 4.621-3.882 7.783-4.131m.11 1.495c-2.75.22-4.921 1.612-7.001 3.877l-3.204 4.035 2.294 2.295 4.03-3.2c2.268-2.082 3.662-4.254 3.882-7.007m-3.39 1.948a1.407 1.407 0 1 1-.002 2.813 1.407 1.407 0 0 1 .001-2.813"/></svg>
